FocusLogger/Resources/Icons/Icons_Default/text_field.svg

<svg version="1.1"
    xmlns="http://www.w3.org/2000/svg"
    xmlns:xlink="http://www.w3.org/1999/xlink" width="512" height="512" viewBox="0 0 512 512">
    <title>text field icon</title>
    <desc>text field icon from the IconExperience.com G-Collection. Copyright by INCORS GmbH (www.incors.com).</desc>
    <defs>
        <linearGradient x1="0" y1="176" x2="103.226" y2="336" gradientUnits="userSpaceOnUse" id="color-1">
            <stop offset="0" stop-color="#f4f6f8"/>
            <stop offset="1" stop-color="#e7ecf1"/>
        </linearGradient>
        <linearGradient x1="32" y1="208" x2="113.0499" y2="297.7495" gradientUnits="userSpaceOnUse" id="color-2">
            <stop offset="0" stop-color="#129eee"/>
            <stop offset="1" stop-color="#1086ca"/>
        </linearGradient>
    </defs>
    <g fill="none" fill-rule="none" stroke="none" stroke-width="1" stroke-linecap="butt" stroke-linejoin="miter" stroke-miterlimit="10" stroke-dasharray="" stroke-dashoffset="0" font-family="none" font-weight="none" font-size="none" text-anchor="none" style="mix-blend-mode: normal">
        <path d="M8,176l496,0c4.5,0 8,3.5 8,8l0,144c0,4.5 -3.5,8 -8,8l-496,0c-4.5,0 -8,-3.5 -8,-8l0,-144c0,-4.5 3.5,-8 8,-8z" id="curve2" fill="url(#color-1)" fill-rule="evenodd"/>
        <path d="M92.5,285l-31,0l-5.5,17.5l-24,0l34.5,-93l21,0l34.5,93l-24.5,0z M67,268l20,0l-10,-32.5z M133.5,302.5l0,-93l33.5,0c12,0 21,2 27.5,6.5c6,4.5 9,10.5 9,19c0,5 -1,9 -3,12.5c-2.5,3.5 -5.5,6 -10,7.5c5,1.5 8.5,4 11,7.5c3,3.5 4,7.5 4,12.5c0,9 -2.5,16 -8.5,20.5c-6,5 -14.5,7 -26,7z M156,263l0,22.5l14.5,0c4,0 7.5,-1 9.5,-3c2,-2 3,-4.5 3,-7.5c0,-8 -3.5,-12 -11.5,-12z M156,248l11.5,0c5,0 8.5,-1 10.5,-2.5c2,-2 3,-4.5 3,-8c0,-3.5 -1,-6.5 -3,-8c-2.5,-2 -6,-3 -11,-3l-11,0z M298,271c0,6.5 -2,12.5 -5,17.5c-3.5,5 -8,8.5 -13.5,11.5c-6,2.5 -12.5,4 -20,4c-12,0 -22,-4 -29,-12c-7,-8 -10.5,-19.5 -10.5,-34l0,-4.5c0,-9 1.5,-17 5,-24c3,-7 7.5,-12 13.5,-16c6,-3.5 13,-5.5 21,-5.5c11,0 20,3 27,9c7,6 11,14 12,24.5l-22.5,0c-0.5,-5.5 -1.5,-9.5 -4.5,-12c-2.5,-2.5 -6.5,-4 -12,-4c-6,0 -10,2 -12.5,6.5c-2.5,4 -4,11 -4,20l0,6.5c0,10 1,17 3.5,21.5c2.5,4.5 7,6.5 13,6.5c5,0 9,-1.5 12,-4c2.5,-2 4,-6 4.5,-11.5z" id="curve1" fill="url(#color-2)" fill-rule="nonzero"/>
        <path d="M304,144l32,0c3,0 5.5,1 8,2c2.5,-1 5,-2 8,-2l32,0l0,16l-32,0l0,192l32,0l0,16l-32,0c-3,0 -5.5,-1 -8,-2c-2.5,1 -5,2 -8,2l-32,0l0,-16l32,0l0,-192l-32,0z" id="curve0" fill="#717f8f" fill-rule="nonzero"/>
    </g>
</svg>

<?xml version="1.0" encoding="UTF-8" standalone="no"?>
<!DOCTYPE svg PUBLIC "-//W3C//DTD SVG 1.1//EN" "http://www.w3.org/Graphics/SVG/1.1/DTD/svg11.dtd">
<svg width="100%" height="100%" viewBox="0 0 512 512" version="1.1" xmlns="http://www.w3.org/2000/svg" xmlns:xlink="http://www.w3.org/1999/xlink" xml:space="preserve" xmlns:serif="http://www.serif.com/" style="fill-rule:evenodd;clip-rule:evenodd;stroke-linejoin:round;stroke-miterlimit:2;">
    <g>
        <g id="curve2" transform="matrix(1,0,0,1.27679,0,-39.8571)">
            <path d="M8,176L504,176C508.5,176 512,179.5 512,184L512,328C512,332.5 508.5,336 504,336L8,336C3.5,336 0,332.5 0,328L0,184C0,179.5 3.5,176 8,176Z" style="fill:url(#_Linear1);"/>
        </g>
        <g id="curve1" transform="matrix(1.27778,0,0,1.27679,0,-39.8571)">
            <path d="M92.5,285L61.5,285L56,302.5L32,302.5L66.5,209.5L87.5,209.5L122,302.5L97.5,302.5L92.5,285ZM67,268L87,268L77,235.5L67,268ZM133.5,302.5L133.5,209.5L167,209.5C179,209.5 188,211.5 194.5,216C200.5,220.5 203.5,226.5 203.5,235C203.5,240 202.5,244 200.5,247.5C198,251 195,253.5 190.5,255C195.5,256.5 199,259 201.5,262.5C204.5,266 205.5,270 205.5,275C205.5,284 203,291 197,295.5C191,300.5 182.5,302.5 171,302.5L133.5,302.5ZM156,263L156,285.5L170.5,285.5C174.5,285.5 178,284.5 180,282.5C182,280.5 183,278 183,275C183,267 179.5,263 171.5,263L156,263ZM156,248L167.5,248C172.5,248 176,247 178,245.5C180,243.5 181,241 181,237.5C181,234 180,231 178,229.5C175.5,227.5 172,226.5 167,226.5L156,226.5L156,248ZM298,271C298,277.5 296,283.5 293,288.5C289.5,293.5 285,297 279.5,300C273.5,302.5 267,304 259.5,304C247.5,304 237.5,300 230.5,292C223.5,284 220,272.5 220,258L220,253.5C220,244.5 221.5,236.5 225,229.5C228,222.5 232.5,217.5 238.5,213.5C244.5,210 251.5,208 259.5,208C270.5,208 279.5,211 286.5,217C293.5,223 297.5,231 298.5,241.5L276,241.5C275.5,236 274.5,232 271.5,229.5C269,227 265,225.5 259.5,225.5C253.5,225.5 249.5,227.5 247,232C244.5,236 243,243 243,252L243,258.5C243,268.5 244,275.5 246.5,280C249,284.5 253.5,286.5 259.5,286.5C264.5,286.5 268.5,285 271.5,282.5C274,280.5 275.5,276.5 276,271L298,271Z" style="fill:url(#_Linear2);fill-rule:nonzero;"/>
        </g>
        <g id="curve0" transform="matrix(1.27778,0,0,1.27679,0,-39.8571)">
            <path d="M304,144L336,144C339,144 341.5,145 344,146C346.5,145 349,144 352,144L384,144L384,160L352,160L352,352L384,352L384,368L352,368C349,368 346.5,367 344,366C341.5,367 339,368 336,368L304,368L304,352L336,352L336,160L304,160L304,144Z" style="fill:rgb(113,127,143);fill-rule:nonzero;"/>
        </g>
    </g>
    <defs>
        <linearGradient id="_Linear1" x1="0" y1="0" x2="1" y2="-0.242217" gradientUnits="userSpaceOnUse" gradientTransform="matrix(103.226,160,-160,103.226,0,176)"><stop offset="0" style="stop-color:rgb(244,246,248);stop-opacity:1"/><stop offset="1" style="stop-color:rgb(231,236,241);stop-opacity:1"/></linearGradient>
        <linearGradient id="_Linear2" x1="0" y1="0" x2="1" y2="0.000772618" gradientUnits="userSpaceOnUse" gradientTransform="matrix(81.0499,89.7495,-89.7495,81.0499,32,208)"><stop offset="0" style="stop-color:rgb(18,158,238);stop-opacity:1"/><stop offset="1" style="stop-color:rgb(16,134,202);stop-opacity:1"/></linearGradient>
    </defs>
</svg>
